Costumes/shirt-a.svg

<?xml version="1.0" encoding="UTF-8" standalone="no"?>
<svg
   version="1.1"
   width="67.245766"
   height="98.376213"
   viewBox="0 0 67.245766 98.376213"
   id="svg8"
   sodipodi:docname="shirt-a.svg"
   xmlns:inkscape="http://www.inkscape.org/namespaces/inkscape"
   xmlns:sodipodi="http://sodipodi.sourceforge.net/DTD/sodipodi-0.dtd"
   xmlns="http://www.w3.org/2000/svg"
   xmlns:svg="http://www.w3.org/2000/svg">
  <defs
     id="defs12" />
  <sodipodi:namedview
     id="namedview10"
     pagecolor="#ffffff"
     bordercolor="#000000"
     borderopacity="0.25"
     inkscape:showpageshadow="2"
     inkscape:pageopacity="0.0"
     inkscape:pagecheckerboard="0"
     inkscape:deskcolor="#d1d1d1" />
  <!-- Exported by Scratch - http://scratch.mit.edu/ -->
  <g
     id="ID0.491726438049227"
     transform="translate(-2.0408761,-0.91967236)">
    <path
       id="ID0.8950433996506035"
       fill="#006666"
       stroke="#000000"
       stroke-width="1"
       stroke-linecap="round"
       d="m 80.4,254.6 c 3.756,-0.446 8.316,3.338 9.35,6.65 2.204,6.891 2.527,14.651 0.5,21.75 -0.65,2.277 -4.647,1.516 -7,1.25 -2.885,-0.331 -6.922,-0.14 -7.75,-2.75 -1.849,-5.83 -0.05,-12.14 1.25,-18 0.713,-3.199 0.937,-8.216 3.65,-8.9 z"
       transform="matrix(1.2327666,-0.29410258,0.39251405,1.4077631,-153.7,-330.1)" />
    <path
       id="ID0.8537395023740828"
       fill="#ffffff"
       stroke="#000000"
       stroke-width="2"
       stroke-linecap="round"
       d="m 151,68.45 c 10.471,-3.946 26.703,-4.937 33.5,4 8.347,10.977 0.218,27.643 1.1,41.4 0.175,3.454 1.556,4.91 1.9,7.45 0.321,2.376 0.046,3.058 0,7.2 -0.36,10.078 -0.96,20.179 -1.5,30.25 -0.568,10.674 -0.213,20.872 -2,30.85 -0.435,2.8 -1.79,-0.267 -3.25,-0.65 -5.249,-1.277 -10.634,-2.415 -16,-2.95 -8.714,-0.869 -17.516,-0.936 -26.25,-1.6 -2.183,-0.166 -2.962,1.912 -3.15,-0.2 -0.75,-8.449 0.353,-16.92 1.15,-25.45 1.253,-13.415 3.762,-26.734 5,-40.15 0.93,-10.074 -0.392,-20.476 1.5,-30.45 1.326,-6.979 1.342,-17.165 8,-19.7 z"
       transform="matrix(-0.85737497,0,0,0.77333736,176.95,-49)" />
    <g
       id="ID0.08513205265626311">
      <path
         id="path4"
         fill="#006666"
         stroke="#000000"
         stroke-width="1"
         stroke-linecap="round"
         d="m 83,255.75 c 2.817,-0.564 6.068,2.632 6.75,5.5 1.932,6.959 2.527,14.651 0.5,21.75 -0.65,2.277 -4.647,1.516 -7,1.25 -2.885,-0.331 -6.922,-0.14 -7.75,-2.75 -1.849,-5.83 -0.395,-12.224 1.25,-18 0.947,-3.352 3.003,-7.1 6.25,-7.75 z"
         transform="matrix(1.2398585,0.26260346,-0.24868628,1.4401456,-20.8,-383.8)" />
    </g>
  </g>
</svg>

<svg version="1.1" width="70" height="99" viewBox="0 0 70 99" xmlns="http://www.w3.org/2000/svg" xmlns:xlink="http://www.w3.org/1999/xlink">
  <!-- Exported by Scratch - http://scratch.mit.edu/ -->
  <g id="ID0.491726438049227">
    <path id="ID0.8950433996506035" fill="#006666" stroke="#000000" stroke-width="1" stroke-linecap="round" d="M 80.400 254.600 C 84.156 254.154 88.716 257.938 89.750 261.250 C 91.954 268.141 92.277 275.901 90.250 283 C 89.600 285.277 85.603 284.516 83.250 284.250 C 80.365 283.919 76.328 284.110 75.500 281.500 C 73.651 275.670 75.450 269.360 76.750 263.500 C 77.463 260.301 77.687 255.284 80.400 254.600 Z " transform="matrix(1.2327666282653809, -0.29410257935523987, 0.39251405000686646, 1.407763123512268, -153.7, -330.1)"/>
    <path id="ID0.8537395023740828" fill="#FFFFFF" stroke="#000000" stroke-width="2" stroke-linecap="round" d="M 151 68.450 C 161.471 64.504 177.703 63.513 184.500 72.450 C 192.847 83.427 184.718 100.093 185.600 113.850 C 185.775 117.304 187.156 118.760 187.500 121.300 C 187.821 123.676 187.546 124.358 187.500 128.500 C 187.140 138.578 186.540 148.679 186 158.750 C 185.432 169.424 185.787 179.622 184 189.600 C 183.565 192.400 182.210 189.333 180.750 188.950 C 175.501 187.673 170.116 186.535 164.750 186 C 156.036 185.131 147.234 185.064 138.500 184.400 C 136.317 184.234 135.538 186.312 135.350 184.200 C 134.600 175.751 135.703 167.280 136.500 158.750 C 137.753 145.335 140.262 132.016 141.500 118.600 C 142.430 108.526 141.108 98.124 143 88.150 C 144.326 81.171 144.342 70.985 151 68.450 Z " transform="matrix(-0.8573749661445618, 0, 0, 0.7733373641967773, 176.95, -49)"/>
    <g id="ID0.08513205265626311">
      <path id="ID0.8950433996506035" fill="#006666" stroke="#000000" stroke-width="1" stroke-linecap="round" d="M 83 255.750 C 85.817 255.186 89.068 258.382 89.750 261.250 C 91.682 268.209 92.277 275.901 90.250 283 C 89.600 285.277 85.603 284.516 83.250 284.250 C 80.365 283.919 76.328 284.110 75.500 281.500 C 73.651 275.670 75.105 269.276 76.750 263.500 C 77.697 260.148 79.753 256.400 83 255.750 Z " transform="matrix(1.2398585081100464, 0.2626034617424011, -0.248686283826828, 1.4401456117630005, -20.8, -383.8)"/>
    </g>
  </g>
</svg>
